!!!COM: Gomółka, Mikołaj
!!!CDT: ~1535-after 1591
!!!OTL: Pan ogniem swojej światłości
!!!OTL@LAT: Dominus illuminatio mea
!!!AGn: Motet; Psalm
!!!SCn: Gom2027
!!!SCn: Gom2027
!!!voices: 4
**kern	**kern	**kern	**kern
*staff4	*staff3	*staff2	*staff1
*Ivox	*Ivox	*Ivox	*Ivox
*I"Bassus	*I"Tenor	*I"Altus	*I"Cantus
*I'B	*I'T	*I'A	*I'C
*clefF4	*clefGv2	*clefGv2	*clefG2
*k[]	*k[]	*k[]	*k[]
*M2/1	*M2/1	*M2/1	*M2/1
*met(C|)	*met(C|)	*met(C|)	*met(C|)
=1-	=1-	=1-	=1-
1G	4G	4B	2.g
.	4A	4c	.
.	4B	4d	.
.	4c	4c	4a
2G	4d	4B	4b
.	4e	8AL	4cc
.	.	8GJ	.
2D	2f	2A	2dd
=2	=2	=2	=2
2.E	2.g	2G	2.b
.	.	1g	.
4F	4f	.	4a
2G	2e	.	2b
2A	4d	2f#i	[2cc
.	4c	.	.
=3	=3	=3	=3
1G	1d	2.g	2cc]
.	.	.	2b
.	.	4f	.
2C	2c	2e	2cc
[2C	2c	2e	2g
=4	=4	=4	=4
4C]	1e	1g	1cc
4D	.	.	.
4E	.	.	.
4F	.	.	.
2G	2d	2g	2b
4F	2d	2g	4a
4E	.	.	4g
=5	=5	=5	=5
2F	4c	2f	4a
.	4B	.	4g
2G	4B	2.d	1g
.	8AL	.	.
.	8GJ	.	.
1D	1A	.	.
.	.	4c	.
.	.	2A	2f#i
=6	=6	=6	=6
2G	2G	2B	2g
2E	2B	2G	2g
2A	2c	4A	2e
.	.	4B	.
2A	2c	[2c	2f
=7	=7	=7	=7
1G	1d	2c]	1g
.	.	2B	.
2F	4A	2c	2a
.	4B	.	.
2E	[2c	2G	2g
=8	=8	=8	=8
1D	2c]	2A	1f
.	2B	2F	.
2C	2c	2G	2e
2C	2c	[2e	2g
=9	=9	=9	=9
2C	2G	4e]	2cc
.	.	4d	.
2F	2A	2c	2a
2D	2A	2f	2.dd
[2G	2B	2d	.
.	.	.	4cc
=10	=10	=10	=10
4G]	2B	2d	4b
4F	.	.	4a
4E	2c	2e	1g
8DL	.	.	.
8CJ	.	.	.
1D	4B	2.d	.
.	8AL	.	.
.	8GJ	.	.
.	2A	.	2f#i
.	.	4c	.
=11	=11	=11	=11
0G	0G	0B	0g
==	==	==	==
*-	*-	*-	*-
!!!CNT: Polish
!!!OCY: Poland
!!!LYR: Jan Kochanowski (1530-1584/08/22)
!!!GTL: Melodiae na Psałterz Polski
!!!EFL: 27/150
!!!PPR: Łazarz Andrysowicz
!!!PPP: Kraków
!!!PDT: 1580
!!!YEC: 2015 Marcin Konik
!!!ENC: Marcin Konik
!!!END: 2015/05/19
!!!EED: Marcin Konik
!!!EEV: 2015/05/19
!!!ONB: Translated from MusicXML and edited on 2015/03/06 by Marcin Konik
!!!CharacterEncoding: utf-8
!!muse2ps: i2I150v85,85,85,150Q16
!!title: @{OTL}, @{GTL}, ed. @{ENC}
